X: 78
T:Pilgrim,The. JBa.77
T:New Pilgrim,aka. JBa.77
M:6/8
L:1/8
Q:120
S:Joseph Barnes MS,Carlisle,1762.
R:march
O:England
A:Carlisle
N:Not clear, may be New Pilgrim
Z:vmp.C.Graebe.
K:D major
d2d e2e | fd z z2 A | Bcd A2 G |  FDzz2 c |! 
dcd ede |f2e "tr" c3 |dfe dcB | A3 A3 :|!
|: A | A2 A AGF | G2 B e2G |G2G GFE |F2 A d2F |!
 GAB AFD | B2cd3 | egf gec | d3 d3 |]
